X:41
T:Minun Kultani (My Sweetheart)
M:2/4
L:1/16
Q:1/4=80
S:arr. Eira Mattsson (Washington DC Finlandia Foundation) ~1976
R:jenkka
K:Bm
|: "Bm" d2d2 "F#7" c2cc | "Bm" B2B2 "Em" c4 |
"F#7" F2F2 ^G2^A2 | "Bm" B4 "F#7" c4 :| !
|: "D" f4 "A7" e2ec | "Bm" d2d2 "Em" c4 |
"F#7" F2F2 ^G2^A2 |[1 "Bm" B4 "F#7" c4 :|[2 "Bm" B4 B4 ||
